packages/crayons-icon/icons/filter.svg

<?xml version="1.0" encoding="UTF-8"?>
<svg width="14px" height="14px" viewBox="0 0 14 14" version="1.1" xmlns="http://www.w3.org/2000/svg" xmlns:xlink="http://www.w3.org/1999/xlink">
    <!-- Generator: Sketch 52.6 (67491) - http://www.bohemiancoding.com/sketch -->
    <title>icon/filter</title>
    <desc>Created with Sketch.</desc>
    <g id="Icons-✅" stroke="none" stroke-width="1" fill="none" fill-rule="evenodd">
        <g id="Icons" transform="translate(-655.000000, -1993.000000)" fill="currentColor">
            <g id="icon/filter" transform="translate(655.000000, 1993.000000)">
                <g id="filter">
                    <path d="M5.54,14 C5.39773956,14.0003953 5.25855027,13.9586385 5.14,13.88 C4.9479594,13.7490632 4.83216764,13.5324206 4.83,13.3 L4.83,9.17 L0.41,4.74 C0.144032309,4.47562211 -0.00382557513,4.11499313 1.1100875e-16,3.74 L1.1100875e-16,1.4 C1.1100875e-16,0.62680135 0.62680135,0 1.4,0 L12.6,0 C12.9713031,-7.77156117e-16 13.3273986,0.147499577 13.5899495,0.410050506 C13.8525004,0.672601436 14,1.02869691 14,1.4 L14,3.75 C14.0038256,4.12499313 13.8559677,4.48562211 13.59,4.75 L9.16,9.18 L9.16,12.18 C9.15977203,12.4722127 8.9755009,12.7325958 8.7,12.83 L5.79,14 C5.70719488,14.0132692 5.62280512,14.0132692 5.54,14 Z M1.4,1.4 L1.4,3.75 L5.83,8.18 C6.09406539,8.44564403 6.24158197,8.80544055 6.24,9.18 L6.24,12.29 L7.76,11.71 L7.76,9.17 C7.75764941,8.79331454 7.90938479,8.43203983 8.18,8.17 L12.6,3.75 L12.6,1.4 L1.4,1.4 Z" id="Shape"></path>
                </g>
            </g>
        </g>
    </g>
</svg>

<svg viewBox="0 0 14 14"><path d="M5.54 14a.72.72 0 0 1-.4-.12.71.71 0 0 1-.31-.58V9.17L.41 4.74a1.39 1.39 0 0 1-.41-1V1.4A1.4 1.4 0 0 1 1.4 0h11.2A1.4 1.4 0 0 1 14 1.4v2.35a1.39 1.39 0 0 1-.41 1L9.16 9.18v3a.69.69 0 0 1-.46.65L5.79 14a.79.79 0 0 1-.25 0zM1.4 1.4v2.35l4.43 4.43c.264.266.412.625.41 1v3.11l1.52-.58V9.17a1.38 1.38 0 0 1 .42-1l4.42-4.42V1.4H1.4z" fill="currentColor" fill-rule="evenodd"/></svg>
